l16 [//d (20)//oppoverd e f a <d e f a < d e f //nedovere d > a f e d > a f e //oppoverd e f a <d e f a < d e f //nedover -ee d > a f e d > a f d//forkortet A7//oppover[e f g < c+ e f g < c+ e f g//nedoverf e c+ > g f e c+ > g f e c+]2//D//oppover[d e f+ a < d e f+ a < d e f+//nedovere d > a f+ e d > a f+ e ]2//d[d g a b- < d g a b- < d g a b-a g d > b- a g d > b- a g d > b-]2]2<[d e f+ a]8[d g a b-]8;l1 r rrrrrrrrr r2 r4%1@2 l1  a^2 q8 g4 a4 q6 b- g a g;%@3l1 r rrrrrrrrr r2 r4